images/portal/4150.svg

<?xml version="1.0" standalone="no"?><!DOCTYPE svg PUBLIC "-//W3C//DTD SVG 1.1//EN" "http://www.w3.org/Graphics/SVG/1.1/DTD/svg11.dtd"><svg xmlns:xlink="http://www.w3.org/1999/xlink" version="1.1" class="highcharts-root" style="font-family:Arial;font-size:12px;" xmlns="http://www.w3.org/2000/svg" width="485" height="415"><desc>Created with Highcharts 5.0.7</desc><defs><clipPath id="highcharts-tbr2yqi-1"><rect x="0" y="0" width="282" height="278" fill="none"></rect></clipPath></defs><rect fill="#fbfbfb" class="highcharts-background" x="0" y="0" width="485" height="415" rx="0" ry="0"></rect><rect fill="none" class="highcharts-plot-background" x="53" y="72" width="282" height="278"></rect><g class="highcharts-grid highcharts-xaxis-grid "><path fill="none" class="highcharts-grid-line" d="M 108.5 72 L 108.5 350" opacity="1"></path><path fill="none" class="highcharts-grid-line" d="M 165.5 72 L 165.5 350" opacity="1"></path><path fill="none" class="highcharts-grid-line" d="M 221.5 72 L 221.5 350" opacity="1"></path><path fill="none" class="highcharts-grid-line" d="M 278.5 72 L 278.5 350" opacity="1"></path><path fill="none" class="highcharts-grid-line" d="M 334.5 72 L 334.5 350" opacity="1"></path><path fill="none" class="highcharts-grid-line" d="M 52.5 72 L 52.5 350" opacity="1"></path></g><g class="highcharts-grid highcharts-yaxis-grid "><path fill="none" stroke="#e6e6e6" stroke-width="1" class="highcharts-grid-line" d="M 53 350.5 L 335 350.5" opacity="1"></path><path fill="none" stroke="#e6e6e6" stroke-width="1" class="highcharts-grid-line" d="M 53 322.5 L 335 322.5" opacity="1"></path><path fill="none" stroke="#e6e6e6" stroke-width="1" class="highcharts-grid-line" d="M 53 294.5 L 335 294.5" opacity="1"></path><path fill="none" stroke="#e6e6e6" stroke-width="1" class="highcharts-grid-line" d="M 53 267.5 L 335 267.5" opacity="1"></path><path fill="none" stroke="#e6e6e6" stroke-width="1" class="highcharts-grid-line" d="M 53 239.5 L 335 239.5" opacity="1"></path><path fill="none" stroke="#e6e6e6" stroke-width="1" class="highcharts-grid-line" d="M 53 211.5 L 335 211.5" opacity="1"></path><path fill="none" stroke="#e6e6e6" stroke-width="1" class="highcharts-grid-line" d="M 53 183.5 L 335 183.5" opacity="1"></path><path fill="none" stroke="#e6e6e6" stroke-width="1" class="highcharts-grid-line" d="M 53 155.5 L 335 155.5" opacity="1"></path><path fill="none" stroke="#e6e6e6" stroke-width="1" class="highcharts-grid-line" d="M 53 128.5 L 335 128.5" opacity="1"></path><path fill="none" stroke="#e6e6e6" stroke-width="1" class="highcharts-grid-line" d="M 53 100.5 L 335 100.5" opacity="1"></path><path fill="none" stroke="#e6e6e6" stroke-width="1" class="highcharts-grid-line" d="M 53 71.5 L 335 71.5" opacity="1"></path></g><rect fill="none" class="highcharts-plot-border" x="53" y="72" width="282" height="278"></rect><g class="highcharts-axis highcharts-xaxis "><path fill="none" class="highcharts-tick" stroke="#FFFFFF" stroke-width="1" d="M 108.5 350 L 108.5 360" opacity="1"></path><path fill="none" class="highcharts-tick" stroke="#FFFFFF" stroke-width="1" d="M 165.5 350 L 165.5 360" opacity="1"></path><path fill="none" class="highcharts-tick" stroke="#FFFFFF" stroke-width="1" d="M 221.5 350 L 221.5 360" opacity="1"></path><path fill="none" class="highcharts-tick" stroke="#FFFFFF" stroke-width="1" d="M 278.5 350 L 278.5 360" opacity="1"></path><path fill="none" class="highcharts-tick" stroke="#FFFFFF" stroke-width="1" d="M 335.5 350 L 335.5 360" opacity="1"></path><path fill="none" class="highcharts-tick" stroke="#FFFFFF" stroke-width="1" d="M 52.5 350 L 52.5 360" opacity="1"></path><path fill="none" class="highcharts-axis-line" stroke="#ccd6eb" stroke-width="1" d="M 53 350.5 L 335 350.5"></path></g><g class="highcharts-axis highcharts-yaxis "><path fill="none" class="highcharts-axis-line" d="M 53 72 L 53 350"></path></g><g class="highcharts-series-group"><g class="highcharts-series highcharts-series-0 highcharts-column-series highcharts-color-undefined highcharts-tracker" transform="translate(53,72) scale(1 1)" clip-path="url(#highcharts-tbr2yqi-1)"><rect x="14.5" y="-0.5" width="28" height="9" fill="#dc440e" class="highcharts-point" stroke="#ffffff" stroke-width="1"></rect><rect x="70.5" y="-0.5" width="28" height="10" fill="#dc440e" class="highcharts-point" stroke="#ffffff" stroke-width="1"></rect><rect x="126.5" y="-0.5" width="28" height="7" fill="#dc440e" class="highcharts-point" stroke="#ffffff" stroke-width="1"></rect><rect x="183.5" y="-0.5" width="28" height="5" fill="#dc440e" class="highcharts-point" stroke="#ffffff" stroke-width="1"></rect><rect x="239.5" y="-0.5" width="28" height="4" fill="#dc440e" class="highcharts-point" stroke="#ffffff" stroke-width="1"></rect></g><g class="highcharts-markers highcharts-series-0 highcharts-column-series highcharts-color-undefined " transform="translate(53,72) scale(1 1)" clip-path="none"></g><g class="highcharts-series highcharts-series-1 highcharts-column-series highcharts-color-undefined highcharts-tracker" transform="translate(53,72) scale(1 1)" clip-path="url(#highcharts-tbr2yqi-1)"><rect x="14.5" y="8.5" width="28" height="38" fill="#ffbb58" class="highcharts-point" stroke="#ffffff" stroke-width="1"></rect><rect x="70.5" y="9.5" width="28" height="39" fill="#ffbb58" class="highcharts-point" stroke="#ffffff" stroke-width="1"></rect><rect x="126.5" y="6.5" width="28" height="39" fill="#ffbb58" class="highcharts-point" stroke="#ffffff" stroke-width="1"></rect><rect x="183.5" y="4.5" width="28" height="26" fill="#ffbb58" class="highcharts-point" stroke="#ffffff" stroke-width="1"></rect><rect x="239.5" y="3.5" width="28" height="20" fill="#ffbb58" class="highcharts-point" stroke="#ffffff" stroke-width="1"></rect></g><g class="highcharts-markers highcharts-series-1 highcharts-column-series highcharts-color-undefined " transform="translate(53,72) scale(1 1)" clip-path="none"></g><g class="highcharts-series highcharts-series-2 highcharts-column-series highcharts-color-undefined highcharts-tracker" transform="translate(53,72) scale(1 1)" clip-path="url(#highcharts-tbr2yqi-1)"><rect x="14.5" y="46.5" width="28" height="2" fill="#999999" class="highcharts-point" stroke="#ffffff" stroke-width="1"></rect><rect x="70.5" y="48.5" width="28" height="2" fill="#999999" class="highcharts-point" stroke="#ffffff" stroke-width="1"></rect><rect x="126.5" y="45.5" width="28" height="1" fill="#999999" class="highcharts-point" stroke="#ffffff" stroke-width="1"></rect><rect x="183.5" y="30.5" width="28" height="1" fill="#999999" class="highcharts-point" stroke="#ffffff" stroke-width="1"></rect><rect x="239.5" y="23.5" width="28" height="1" fill="#999999" class="highcharts-point" stroke="#ffffff" stroke-width="1"></rect></g><g class="highcharts-markers highcharts-series-2 highcharts-column-series highcharts-color-undefined " transform="translate(53,72) scale(1 1)" clip-path="none"></g><g class="highcharts-series highcharts-series-3 highcharts-column-series highcharts-color-undefined highcharts-tracker" transform="translate(53,72) scale(1 1)" clip-path="url(#highcharts-tbr2yqi-1)"><rect x="14.5" y="48.5" width="28" height="115" fill="#68ab2b" class="highcharts-point" stroke="#ffffff" stroke-width="1"></rect><rect x="70.5" y="50.5" width="28" height="124" fill="#68ab2b" class="highcharts-point" stroke="#ffffff" stroke-width="1"></rect><rect x="126.5" y="46.5" width="28" height="133" fill="#68ab2b" class="highcharts-point" stroke="#ffffff" stroke-width="1"></rect><rect x="183.5" y="31.5" width="28" height="111" fill="#68ab2b" class="highcharts-point" stroke="#ffffff" stroke-width="1"></rect><rect x="239.5" y="24.5" width="28" height="116" fill="#68ab2b" class="highcharts-point" stroke="#ffffff" stroke-width="1"></rect></g><g class="highcharts-markers highcharts-series-3 highcharts-column-series highcharts-color-undefined " transform="translate(53,72) scale(1 1)" clip-path="none"></g><g class="highcharts-series highcharts-series-4 highcharts-column-series highcharts-color-undefined highcharts-tracker" transform="translate(53,72) scale(1 1)" clip-path="url(#highcharts-tbr2yqi-1)"><rect x="14.5" y="163.5" width="28" height="115" fill="#007a2f" class="highcharts-point" stroke="#ffffff" stroke-width="1"></rect><rect x="70.5" y="174.5" width="28" height="104" fill="#007a2f" class="highcharts-point" stroke="#ffffff" stroke-width="1"></rect><rect x="126.5" y="179.5" width="28" height="99" fill="#007a2f" class="highcharts-point" stroke="#ffffff" stroke-width="1"></rect><rect x="183.5" y="142.5" width="28" height="136" fill="#007a2f" class="highcharts-point" stroke="#ffffff" stroke-width="1"></rect><rect x="239.5" y="140.5" width="28" height="138" fill="#007a2f" class="highcharts-point" stroke="#ffffff" stroke-width="1"></rect></g><g class="highcharts-markers highcharts-series-4 highcharts-column-series highcharts-color-undefined " transform="translate(53,72) scale(1 1)" clip-path="none"></g></g><text x="10" text-anchor="start" class="highcharts-title" style="color:#000000;font-size:14px;font-weight:bold;fill:#000000;" y="21"><tspan>I.50.1.0007 Zufriedenheit mit Grünanlagen und Parks am</tspan><tspan dy="17" x="10">Wohnort</tspan><title>I.50.1.0007 Zufriedenheit mit Grünanlagen und Parks am Wohnort</title></text><text x="10" text-anchor="start" class="highcharts-subtitle" style="color:#000000;font-size:12px;fill:#000000;" y="57"><tspan>«Wie zufrieden sind Sie mit den Grünanlagen und Parks in Ihrem Wohnort?»</tspan></text><g class="highcharts-legend" transform="translate(347,137)"><rect fill="none" class="highcharts-legend-box" rx="0" ry="0" x="0" y="0" width="128" height="121" visibility="visible"></rect><g><g><g class="highcharts-legend-item highcharts-column-series highcharts-color-undefined highcharts-series-0" transform="translate(8,3)"><text x="21" style="color:#333333;font-size:12px;font-weight:normal;cursor:pointer;fill:#333333;" text-anchor="start" y="15"><tspan>Sehr unzufrieden</tspan></text><rect x="2" y="4" width="12" height="12" fill="#dc440e" class="highcharts-point"></rect></g><g class="highcharts-legend-item highcharts-column-series highcharts-color-undefined highcharts-series-1" transform="translate(8,22)"><text x="21" y="15" style="color:#333333;font-size:12px;font-weight:normal;cursor:pointer;fill:#333333;" text-anchor="start"><tspan>Eher unzufrieden</tspan></text><rect x="2" y="4" width="12" height="12" fill="#ffbb58" class="highcharts-point"></rect></g><g class="highcharts-legend-item highcharts-column-series highcharts-color-undefined highcharts-series-2" transform="translate(8,41)"><text x="21" y="15" style="color:#333333;font-size:12px;font-weight:normal;cursor:pointer;fill:#333333;" text-anchor="start"><tspan>Weiss nicht /</tspan><tspan x="21" dy="15">keine Angabe</tspan></text><rect x="2" y="4" width="12" height="12" fill="#999999" class="highcharts-point"></rect></g><g class="highcharts-legend-item highcharts-column-series highcharts-color-undefined highcharts-series-3" transform="translate(8,75)"><text x="21" y="15" style="color:#333333;font-size:12px;font-weight:normal;cursor:pointer;fill:#333333;" text-anchor="start"><tspan>Eher zufrieden</tspan></text><rect x="2" y="4" width="12" height="12" fill="#68ab2b" class="highcharts-point"></rect></g><g class="highcharts-legend-item highcharts-column-series highcharts-color-undefined highcharts-series-4" transform="translate(8,94)"><text x="21" y="15" style="color:#333333;font-size:12px;font-weight:normal;cursor:pointer;fill:#333333;" text-anchor="start"><tspan>Sehr zufrieden</tspan></text><rect x="2" y="4" width="12" height="12" fill="#007a2f" class="highcharts-point"></rect></g></g></g></g><g class="highcharts-axis-labels highcharts-xaxis-labels "><text x="81.2" style="color:#000000;cursor:default;font-size:11px;fill:#000000;" text-anchor="middle" transform="translate(0,0)" y="369" opacity="1"><tspan>2003</tspan><tspan x="81.2" dy="14">(N=1495)</tspan></text><text x="137.60000000000002" style="color:#000000;cursor:default;font-size:11px;fill:#000000;" text-anchor="middle" transform="translate(0,0)" y="369" opacity="1"><tspan>2005</tspan><tspan x="137.60000000000002" dy="14">(N=1509)</tspan></text><text x="194" style="color:#000000;cursor:default;font-size:11px;fill:#000000;" text-anchor="middle" transform="translate(0,0)" y="369" opacity="1"><tspan>2007</tspan><tspan x="194" dy="14">(N=1505)</tspan></text><text x="250.40000000000003" style="color:#000000;cursor:default;font-size:11px;fill:#000000;" text-anchor="middle" transform="translate(0,0)" y="369" opacity="1"><tspan>2011</tspan><tspan x="250.40000000000003" dy="14">(N=1516)</tspan></text><text x="306.8" style="color:#000000;cursor:default;font-size:11px;fill:#000000;" text-anchor="middle" transform="translate(0,0)" y="369" opacity="1"><tspan>2015</tspan><tspan x="306.8" dy="14">(N=1504)</tspan></text></g><g class="highcharts-axis-labels highcharts-yaxis-labels "><text x="38" style="color:#000000;cursor:default;font-size:11px;fill:#000000;" text-anchor="end" transform="translate(0,0)" y="355" opacity="1"><tspan>0%</tspan></text><text x="38" style="color:#000000;cursor:default;font-size:11px;fill:#000000;" text-anchor="end" transform="translate(0,0)" y="327" opacity="1"><tspan>10%</tspan></text><text x="38" style="color:#000000;cursor:default;font-size:11px;fill:#000000;" text-anchor="end" transform="translate(0,0)" y="299" opacity="1"><tspan>20%</tspan></text><text x="38" style="color:#000000;cursor:default;font-size:11px;fill:#000000;" text-anchor="end" transform="translate(0,0)" y="271" opacity="1"><tspan>30%</tspan></text><text x="38" style="color:#000000;cursor:default;font-size:11px;fill:#000000;" text-anchor="end" transform="translate(0,0)" y="243" opacity="1"><tspan>40%</tspan></text><text x="38" style="color:#000000;cursor:default;font-size:11px;fill:#000000;" text-anchor="end" transform="translate(0,0)" y="216" opacity="1"><tspan>50%</tspan></text><text x="38" style="color:#000000;cursor:default;font-size:11px;fill:#000000;" text-anchor="end" transform="translate(0,0)" y="188" opacity="1"><tspan>60%</tspan></text><text x="38" style="color:#000000;cursor:default;font-size:11px;fill:#000000;" text-anchor="end" transform="translate(0,0)" y="160" opacity="1"><tspan>70%</tspan></text><text x="38" style="color:#000000;cursor:default;font-size:11px;fill:#000000;" text-anchor="end" transform="translate(0,0)" y="132" opacity="1"><tspan>80%</tspan></text><text x="38" style="color:#000000;cursor:default;font-size:11px;fill:#000000;" text-anchor="end" transform="translate(0,0)" y="104" opacity="1"><tspan>90%</tspan></text><text x="38" style="color:#000000;cursor:default;font-size:11px;fill:#000000;" text-anchor="end" transform="translate(0,0)" y="77" opacity="1"><tspan>100%</tspan></text></g><text x="10" class="highcharts-credits" text-anchor="start" style="cursor:default;color:#000000;font-size:10px;fill:#000000;" y="400"><tspan>Quelle: Statistisches Amt Basel-Stadt, kantonale Bevölkerungsbefragung: F6_7</tspan></text></svg>

<svg class="highcharts-root" xmlns="http://www.w3.org/2000/svg" viewBox="0 0 485 415" font-family="Arial" font-size="12">
    <defs>
        <clipPath id="a">
            <path fill="none" d="M0 0h282v278H0z"/>
        </clipPath>
    </defs>
    <rect fill="#fbfbfb" class="highcharts-background" width="485" height="415" rx="0" ry="0"/>
    <path fill="none" class="highcharts-plot-background" d="M53 72h282v278H53z"/>
    <g class="highcharts-grid highcharts-xaxis-grid">
        <path fill="none" class="highcharts-grid-line" d="M108.5 72v278m57-278v278m56-278v278m57-278v278m56-278v278M52.5 72v278"/>
    </g>
    <g class="highcharts-grid highcharts-yaxis-grid">
        <path fill="none" stroke="#e6e6e6" class="highcharts-grid-line" d="M53 350.5h282m-282-28h282m-282-28h282m-282-27h282m-282-28h282m-282-28h282m-282-28h282m-282-28h282m-282-27h282m-282-28h282m-282-29h282"/>
    </g>
    <path fill="none" class="highcharts-plot-border" d="M53 72h282v278H53z"/>
    <g class="highcharts-axis highcharts-xaxis">
        <path fill="none" class="highcharts-tick" stroke="#FFF" d="M108.5 350v10m57-10v10m56-10v10m57-10v10m57-10v10m-283-10v10"/>
        <path fill="none" class="highcharts-axis-line" stroke="#ccd6eb" d="M53 350.5h282"/>
    </g>
    <g class="highcharts-axis highcharts-yaxis">
        <path fill="none" class="highcharts-axis-line" d="M53 72v278"/>
    </g>
    <g class="highcharts-series-group">
        <g class="highcharts-series highcharts-series-0 highcharts-column-series highcharts-color-undefined highcharts-tracker" transform="translate(53 72)" clip-path="url(#a)">
            <path fill="#dc440e" class="highcharts-point" stroke="#fff" d="M14.5-.5h28v9h-28zm56 0h28v10h-28zm56 0h28v7h-28zm57 0h28v5h-28zm56 0h28v4h-28z"/>
        </g>
        <g class="highcharts-series highcharts-series-1 highcharts-column-series highcharts-color-undefined highcharts-tracker" transform="translate(53 72)" clip-path="url(#a)">
            <path fill="#ffbb58" class="highcharts-point" stroke="#fff" d="M14.5 8.5h28v38h-28zm56 1h28v39h-28zm56-3h28v39h-28zm57-2h28v26h-28zm56-1h28v20h-28z"/>
        </g>
        <g class="highcharts-series highcharts-series-2 highcharts-column-series highcharts-color-undefined highcharts-tracker" transform="translate(53 72)" clip-path="url(#a)">
            <path fill="#999" class="highcharts-point" stroke="#fff" d="M14.5 46.5h28v2h-28zm56 2h28v2h-28zm56-3h28v1h-28zm57-15h28v1h-28zm56-7h28v1h-28z"/>
        </g>
        <g class="highcharts-series highcharts-series-3 highcharts-column-series highcharts-color-undefined highcharts-tracker" transform="translate(53 72)" clip-path="url(#a)">
            <path fill="#68ab2b" class="highcharts-point" stroke="#fff" d="M14.5 48.5h28v115h-28zm56 2h28v124h-28zm56-4h28v133h-28zm57-15h28v111h-28zm56-7h28v116h-28z"/>
        </g>
        <g class="highcharts-series highcharts-series-4 highcharts-column-series highcharts-color-undefined highcharts-tracker" transform="translate(53 72)" clip-path="url(#a)">
            <path fill="#007a2f" class="highcharts-point" stroke="#fff" d="M14.5 163.5h28v115h-28zm56 11h28v104h-28zm56 5h28v99h-28zm57-37h28v136h-28zm56-2h28v138h-28z"/>
        </g>
    </g>
    <text x="10" class="highcharts-title" y="21" color="#000" font-size="14" font-weight="700">
        <tspan>I.50.1.0007 Zufriedenheit mit Grünanlagen und Parks am</tspan><tspan dy="17" x="10">Wohnort</tspan><title>I.50.1.0007 Zufriedenheit mit Grünanlagen und Parks am Wohnort</title>
    </text>
    <text x="10" class="highcharts-subtitle" y="57" color="#000">
        <tspan>«Wie zufrieden sind Sie mit den Grünanlagen und Parks in Ihrem Wohnort?»</tspan>
    </text>
    <g class="highcharts-legend" transform="translate(347 137)">
        <rect fill="none" class="highcharts-legend-box" rx="0" ry="0" width="128" height="121"/>
        <g class="highcharts-legend-item highcharts-column-series highcharts-color-undefined highcharts-series-0">
            <text x="21" y="15" color="#333" font-weight="400" cursor="pointer" fill="#333" transform="translate(8 3)">
                <tspan>Sehr unzufrieden</tspan>
            </text>
            <path fill="#dc440e" class="highcharts-point" d="M10 7h12v12H10z"/>
        </g>
        <g class="highcharts-legend-item highcharts-column-series highcharts-color-undefined highcharts-series-1">
            <text x="21" y="15" color="#333" font-weight="400" cursor="pointer" fill="#333" transform="translate(8 22)">
                <tspan>Eher unzufrieden</tspan>
            </text>
            <path fill="#ffbb58" class="highcharts-point" d="M10 26h12v12H10z"/>
        </g>
        <g class="highcharts-legend-item highcharts-column-series highcharts-color-undefined highcharts-series-2">
            <text x="21" y="15" color="#333" font-weight="400" cursor="pointer" fill="#333" transform="translate(8 41)">
                <tspan>Weiss nicht /</tspan><tspan x="21" dy="15">keine Angabe</tspan>
            </text>
            <path fill="#999" class="highcharts-point" d="M10 45h12v12H10z"/>
        </g>
        <g class="highcharts-legend-item highcharts-column-series highcharts-color-undefined highcharts-series-3">
            <text x="21" y="15" color="#333" font-weight="400" cursor="pointer" fill="#333" transform="translate(8 75)">
                <tspan>Eher zufrieden</tspan>
            </text>
            <path fill="#68ab2b" class="highcharts-point" d="M10 79h12v12H10z"/>
        </g>
        <g class="highcharts-legend-item highcharts-column-series highcharts-color-undefined highcharts-series-4">
            <text x="21" y="15" color="#333" font-weight="400" cursor="pointer" fill="#333" transform="translate(8 94)">
                <tspan>Sehr zufrieden</tspan>
            </text>
            <path fill="#007a2f" class="highcharts-point" d="M10 98h12v12H10z"/>
        </g>
    </g>
    <g class="highcharts-axis-labels highcharts-xaxis-labels" text-anchor="middle" color="#000" cursor="default" font-size="11">
        <text x="81.2" y="369">
            <tspan>2003</tspan><tspan x="81.2" dy="14">(N=1495)</tspan>
        </text>
        <text x="137.6" y="369">
            <tspan>2005</tspan><tspan x="137.6" dy="14">(N=1509)</tspan>
        </text>
        <text x="194" y="369">
            <tspan>2007</tspan><tspan x="194" dy="14">(N=1505)</tspan>
        </text>
        <text x="250.4" y="369">
            <tspan>2011</tspan><tspan x="250.4" dy="14">(N=1516)</tspan>
        </text>
        <text x="306.8" y="369">
            <tspan>2015</tspan><tspan x="306.8" dy="14">(N=1504)</tspan>
        </text>
    </g>
    <g class="highcharts-axis-labels highcharts-yaxis-labels" text-anchor="end" color="#000" cursor="default" font-size="11">
        <text x="38" y="355">
            <tspan>0%</tspan>
        </text>
        <text x="38" y="327">
            <tspan>10%</tspan>
        </text>
        <text x="38" y="299">
            <tspan>20%</tspan>
        </text>
        <text x="38" y="271">
            <tspan>30%</tspan>
        </text>
        <text x="38" y="243">
            <tspan>40%</tspan>
        </text>
        <text x="38" y="216">
            <tspan>50%</tspan>
        </text>
        <text x="38" y="188">
            <tspan>60%</tspan>
        </text>
        <text x="38" y="160">
            <tspan>70%</tspan>
        </text>
        <text x="38" y="132">
            <tspan>80%</tspan>
        </text>
        <text x="38" y="104">
            <tspan>90%</tspan>
        </text>
        <text x="38" y="77">
            <tspan>100%</tspan>
        </text>
    </g>
    <text x="10" class="highcharts-credits" y="400" cursor="default" color="#000" font-size="10">
        <tspan>Quelle: Statistisches Amt Basel-Stadt, kantonale Bevölkerungsbefragung: F6_7</tspan>
    </text>
</svg>
